public/img/icon-isFree-fill.svg

<svg width="48" height="24" viewBox="0 0 48 24" fill="none" xmlns="http://www.w3.org/2000/svg">
<rect width="48" height="24" rx="4" fill="#00A894"/>
<path d="M22.918 16.8857H12.3428V15.5273H16.7861V13.4453H13.2188V12.1758H14.7676V8.875H13.168V7.58008H22.0293V8.875H20.4043V12.1758H21.9785V13.4453H18.3984V15.5273H22.918V16.8857ZM18.8047 12.1758V8.875H16.3926V12.1758H18.8047ZM33.3941 9.45898H34.9557V10.8174H33.3941V13.585H31.7691V6.61523H33.3941V9.45898ZM33.3941 18.041H25.8404V14.0928H33.3941V18.041ZM27.44 16.7461H31.7945V15.3623H27.44V16.7461ZM31.0836 8.93848H24.2281V7.65625H26.8561V6.55176H28.4684V7.65625H31.0836V8.93848ZM27.6559 9.29395C28.206 9.29395 28.6969 9.38281 29.1285 9.56055C29.5602 9.73405 29.8966 9.97738 30.1378 10.2905C30.379 10.6037 30.4996 10.9613 30.4996 11.3633C30.4996 11.778 30.379 12.144 30.1378 12.4614C29.8966 12.7788 29.5602 13.0243 29.1285 13.1978C28.7011 13.3713 28.2102 13.458 27.6559 13.458C27.093 13.458 26.5937 13.3713 26.1578 13.1978C25.7262 13.0243 25.3897 12.7788 25.1485 12.4614C24.9073 12.144 24.7867 11.778 24.7867 11.3633C24.7867 10.9613 24.9073 10.6037 25.1485 10.2905C25.3897 9.97738 25.7283 9.73405 26.1642 9.56055C26.6 9.38281 27.0973 9.29395 27.6559 9.29395ZM27.6559 10.5127C27.2623 10.5127 26.9492 10.5889 26.7164 10.7412C26.4837 10.8893 26.3694 11.0967 26.3736 11.3633C26.3694 11.651 26.4815 11.8732 26.7101 12.0298C26.9428 12.1864 27.2581 12.2646 27.6559 12.2646C28.0536 12.2646 28.371 12.1864 28.608 12.0298C28.845 11.8732 28.9635 11.651 28.9635 11.3633C28.9635 11.0967 28.8429 10.8893 28.6017 10.7412C28.3647 10.5889 28.0494 10.5127 27.6559 10.5127Z" fill="white"/>
</svg>

<svg xmlns="http://www.w3.org/2000/svg" width="48" height="24" fill="none" viewBox="0 0 48 24"><rect width="48" height="24" fill="#00A894" rx="4"/><path fill="#fff" d="M22.918 16.886H12.343v-1.359h4.443v-2.082H13.22v-1.27h1.549v-3.3h-1.6V7.58h8.861v1.295h-1.625v3.3h1.575v1.27h-3.58v2.082h4.519zm-4.113-4.71V8.875h-2.412v3.3zm14.59-2.717h1.56v1.358h-1.56v2.768h-1.626v-6.97h1.625zm0 8.582H25.84v-3.948h7.554zm-5.955-1.295h4.354v-1.384H27.44zm3.644-7.808h-6.856V7.656h2.628V6.552h1.612v1.104h2.616zm-3.428.356q.824 0 1.473.267.647.26 1.009.73t.362 1.072q0 .622-.362 1.098t-1.01.737q-.64.26-1.472.26-.844 0-1.498-.26-.648-.261-1.01-.737a1.77 1.77 0 0 1-.361-1.098q0-.603.361-1.072.362-.47 1.016-.73.654-.267 1.492-.267m0 1.219q-.59 0-.94.228a.69.69 0 0 0-.342.622.75.75 0 0 0 .336.667q.35.234.946.235.597 0 .952-.235a.75.75 0 0 0 .355-.667q0-.4-.361-.622-.356-.228-.946-.228"/></svg>
